X: 332
T: Lady Jardine of Applegirth's New Strathspey
C: by J Pringle
B: John Pringle "Collection of Reels Strathspeys & Jigs", 1801 p.33#2
Z: 2011 John Chambers <jc:trillian.mit.edu>
R: strathspey
M: C
L: 1/8
K: Bb
V: 1
|:\
D>FB,>f (e/d/c/B/) cG | F<D~G>A B>FBd  | D>FB,d (e/d/c/B/) ~cd  | B>FGA   Bdcd :|
B>fd>f (e/d/c/B/) ~cd | B>fd>f  B>fd>f | B>fd>f (e/d/c/B/) ~cd  | B>cdc   B>FBd |
B>fdf  (e/d/c/B/) ~cd | B>fd>f  B>fdB  | e<fd<f (e/d/c/B/) ~c>d | ~B>cd>c B>FBd |]
V: 2 clef=bass middle=d
|:\
B2B2 f2F2 | B2B2 d2B2 | B2B2 f2F2 | B2B2 B2B2 :|
B2B2 f2F2 | B2B2 B2B2 | B2B2 f2F2 | B2B2 B2B2 |
B2B2 f2F2 | B2B2 B2B2 | c2B2 f2F2 | B2B2 B2B2 |]

%%sep 2 1 500

